X:1
T:Waltz No. 2
T:Waltz No. 2
T:from Suite No. 2 for Jazz Orchestra
T:Dimitri Shostakovich
C:Dimitri Shostakovich
%%score { ( 1 4 ) | ( 2 3 ) }
L:1/8
Q:1/4=170
M:3/4
K:Eb
V:1 treble nm="Piano" snm="Pno."
V:4 treble 
V:2 bass 
V:3 bass 
V:1
!mf! z2 [G,CE]2 [G,CE]2 | z2 [G,CE]2 [G,CE]2 | z2 [G,CE]2 [G,CE]2 |!>(! z2 [G,CE]2 [G,CE]2!>)! || %4
S!mp! (G6 | E4 D2 | C6- | C2) (C2 D2 | E2 C2 E2 | G4 A2 | G6 | F6) | (F6 | D4 C2 | =B,6) | %15
 z2 (F,2 =B,2 | D2 =B,2 D2 | F2 G2 A2 | ^F6 |!<(! G6)!<)! |!mf! ([Gce]6 | d4 c2 | B4 A2 | F6) | %24
 [FBd]6 | [DAc]4 B2 | [EGB]6 | z2 .E2 .[DF]2 | .[EG]2 (GF GA) | .[DF]2 (FE FG) | %30
 .[CE]2 z2 .[CEG]2 | z2 .[CE]2 .[DF]2 | .[EG]2 (GF GA) | .[DF]2 (FE FG) | %34
!<(! .[CE]2 z2 .[CEG]2!<)! |!f! z2 .[Ec]2 .[Fd]2 | .[ce]2 ed ef | .[=Bd]2 dc de!dacoda! || %38
!>(! c6- | c6- | c6- | c6!>)! |!mp! ([Gg]6 | [Ee]4 [Dd]2 | [Cc]6- | [Cc]2) ([Cc]2 [Dd]2 | %46
 [Ee]2 c2 [Ee]2 | [Gg]4 [Aa]2 | [Gg]6 | [Ff]6) | ([Ff]6 | [Dd]4 [Cc]2 | [=B,=B]6- | %53
 [B,B]2) (G2 [=B,=B]2 | [Dd]2 =B2 [Dd]2 | [Ff]2 [Gg]2 [Aa]2 | [^F^f]6 |!<(! [Gg]6)!<)! | %58
!mf! ([Gce]6 | d4 c2 | B4 A2 | F6) | [FBd]6 | [DAc]4 B2 | [EGB]6 | z2 .E2 .[DF]2 | .[EG]2 (GF GA) | %67
 .[DF]2 (FE FG) | .[CE]2 z2 .[CEG]2 | z2 .[CE]2 .[DF]2 | .[EG]2 (GF GA) | .[DF]2 (FE FG) | %72
!<(! .[CE]2 z2 .[CEG]2!<)! |!f! z2 .[Ec]2 .[Fd]2 | .[ce]2 ed ef | .[=Bd]2 dc de || %76
!>(! [EGc]6-!>)! |!mp! [EGc]2 z2 !>![DAB]2 |!mf! [GBe]6 | [GBe]6 | ([Ge]2 [Bd]2 [Ac]2 | %81
 [GB]2 [EG]2 [GB]2) | [FBd]6 | [FBd]6 | ([Ac]2 [GB]2 [EG]2 | [CE]2 [DF]2 [EG]2) | [=EGc]6 | %87
 [=EGB]6 | ([GB]2 [FA]2 [=EG]2 | F2 E2 F2) | ([EG]4 B2) | ([DF]4 B2) |[Q:1/4=145] ([EG]4 B2) | %93
[Q:1/4=110] ([Ge]4 [Bf]2) |[Q:1/4=170] [Beg]6 | [Beg]6 | ([Beg]2 [df]2 [ce]2 | [Bd]2 [GB]2 [Bd]2) | %98
 [Bdf]6 | [Bdf]6 | ([df]2 [ce]2 [Bd]2 | [Ac]2 [EG]2 [GB]2) | [Ge]6 | [Ge]6 | [Ae]6 | %105
 ([Af]2 [Ge]2 [Af]2 | [Bg]4 [Ge]2) | [DB]2 [Ec]2 [Fd]2 | [Ee]2 (f2 e2 | %109
[Q:1/4=140]!>(! _d2 c2 =B2)!>)! |:[Q:1/4=170]!mp! [ac']4 [ce]2- | [ce]2 [=Bd]2 [ce]2 | %112
 [ac']4 [ce]2- | [ce]2 [f_d']2 [ec']2 | [egc']4 [egb]2 | [eg=a]4 [egb]2 | [gbf']4 [gbe']2 | %117
 [f_d']2 [ec']2 [_db]2 | [ac']4 [ce]2- | [ce]2 [=Bd]2 [ce]2 | [ac']4 [ce]2- | [ce]2 ([_df]2 [eg]2 | %122
!<(! [fa]4 [gb]2 | [ac']4 [ac']2 | [bd']2 [ac']2 [bd']2)!<)! |1!f! [ge']4!>(! _d'2!>)! :|2 %126
[Q:1/4=150]!<(! e'f' e'd' e'f'!<)! ||[Q:1/4=80] [=be'g']4[Q:1/4=20] [dd']2!D.S.! || %128
O[Q:1/4=150] c6 |[Q:1/4=80][Q:1/4=80] z2[Q:1/4=50][Q:1/4=50]!mf! e2[Q:1/4=50] =B2 | %130
[Q:1/4=170] ([Gg]6 | [Ee]4 [Dd]2 | [Cc]6- | [Cc]2) ([Cc]2 [Dd]2 | [Ee]2 c2 [Ee]2 | [Gg]4 [Aa]2 | %136
 [Gg]6 | [Ff]6) | ([Ff]6 | [Dd]4 [Cc]2 | [=B,=B]6- | [B,B]2) (G2 [=B,=B]2 | [Dd]2 =B2 [Dd]2 | %143
 [Ff]2 [Gg]2 [Aa]2 | [^F^f]6 | [Gg]6) | ([Gce]6 | d4 c2 | B4 A2 | F6) | [FBd]6 | [DAc]4 [GB]2 | %152
 [EGB]6 | z2 .E2 .[DF]2 | .[EG]2 (GF GA) | .[DF]2 (FE FG) | .[CE]2 z2 .[CEG]2 | z2 .[CE]2 .[DF]2 | %158
 .[EG]2 (GF GA) | .[DF]2 (FE FG) | .[CE]2 z2 .[CEG]2 | z2 .[Ec]2 .[Fd]2 | .[ce]2 ed ef | %163
 .[=Bd]2 dc de | [Gc]2 z2 .[=Bfg]2 | .[cec']2 z4 |] %166
V:2
 C,6 | G,,6 | C,6 | G,,6 || z2 [E,G,]2 [E,G,]2 | z2 [E,G,]2 [E,G,]2 | z2 [E,G,]2 [E,G,]2 | %7
 z2 [E,G,]2 [E,G,]2 | z2 [E,G,]2 [E,G,]2 | z2 [E,G,]2 [E,G,]2 | D,6 | G,,6 | D,6 | G,,6 | %14
 z2 [F,G,]2 [F,G,]2 | z2 D,2 F,2 | z2 [F,G,]2 [F,G,]2 | z2 D,2 F,2 | C,6 | G,,6 | %20
 z2 [E,G,]2 [E,G,]2 | z2 [E,G,]2 [E,G,]2 | z2 [A,C]2 [A,C]2 | z2 [A,C]2 [A,C]2 | %24
 z2 [F,A,]2 [F,A,]2 | z2 [F,A,]2 [F,A,]2 | z2 [G,B,]2 [G,B,]2 | [A,C]2 z2 z2 | [G,,G,]2 z2 z2 | %29
 [A,,A,]2 z2 z2 | [G,,G,]2 z2 z2 | [A,,A,]2 z2 z2 | [G,,G,]2 z2 z2 | [A,,A,]2 z2 z2 | %34
 [G,,G,]2 z2 z2 | [A,,A,]4 z2 | [G,,G,]2 z2 z2 | [G,,G,]2 z2 z2 || C,6 | G,,6 | C,6 | G,,6 | %42
 z2 [E,G,]2 [E,G,]2 | z2 [E,G,]2 [E,G,]2 | z2 [E,G,]2 [E,G,]2 | z2 [E,G,]2 [E,G,]2 | %46
 z2 [E,G,]2 [E,G,]2 | z2 [E,G,]2 [E,G,]2 | z2 [F,A,]2 [F,A,]2 | z2 [G,=B,]2 [G,B,]2 | %50
 z2 [A,C]2 [A,C]2 | z2 [F,A,]2 [F,A,]2 | z2 [F,G,]2 [F,G,]2 | z2 [D,F,]2 [D,F,]2 | %54
 z2 [F,G,]2 [F,G,]2 | z2 [F,G,]2 [F,G,]2 | z2 [E,G,]2 [E,G,]2 | z2 [E,G,]2 [E,G,]2 | %58
 z2 [E,G,]2 [E,G,]2 | z2 [E,G,]2 [E,G,]2 | z2 [A,C]2 [A,C]2 | z2 [A,C]2 [A,C]2 | %62
 z2 [F,A,]2 [F,A,]2 | z2 [F,A,]2 [F,A,]2 | z2 [G,B,]2 [G,B,]2 | [A,C]2 z2 z2 | [G,,G,]2 z2 z2 | %67
 [A,,A,]2 z2 z2 | [G,,G,]2 z2 z2 | [A,,A,]2 z2 z2 | [G,,G,]2 z2 z2 | [A,,A,]2 z2 z2 | %72
 [G,,G,]2 z2 z2 | [A,,A,]4 z2 | [G,,G,]2 z2 z2 | [G,,G,]2 z2 z2 || [C,,C,]2 [G,,G,]2 [E,,E,]2 | %77
 [C,,C,]2 z2 B,,2 | z2 [G,B,]2 [G,B,]2 | z2 [G,B,]2 [G,B,]2 | z2 [G,B,]2 [G,B,]2 | %81
 z2 [G,B,]2 [G,B,]2 | z2 [A,B,]2 [A,B,]2 | z2 [A,B,]2 [A,B,]2 | z2 [G,B,]2 [G,B,]2 | %85
 z2 [G,B,]2 [G,B,]2 | z2 [=E,B,]2 [E,B,]2 | z2 [=E,B,]2 [E,B,]2 | F,2 [A,C]2 C,2 | %89
 z2 [C,F,]2 [C,F,]2 | z2 [G,B,]2 [G,B,]2 | z2 [D,A,]2 [D,A,]2 | z2 [G,B,]2 [G,B,]2 | %93
 z2 [G,B,]2 [G,B,]2 | z2 [G,B,]2 [G,B,]2 | z2 [G,B,]2 [G,B,]2 | z2 [G,B,]2 [G,B,]2 | %97
 z2 [G,B,]2 [G,B,]2 | z2 [A,B,]2 [A,B,]2 | z2 [A,B,]2 [A,B,]2 | z2 [G,B,]2 [G,B,]2 | %101
 z2 [G,B,]2 [G,B,]2 | z2 [G,B,]2 [G,B,]2 | z2 [G,B,]2 [G,B,]2 | z2 [E,A,]2 [E,A,]2 | %105
 z2 [E,F,]2 [E,F,]2 | z2 [E,G,]2 [E,G,]2 | z2 [F,A,]2 [F,A,]2 | [E,G,]2 z4 | [E,G,_D]6 |: %110
 z2 [CE]2 [CE]2 | z2 [CE]2 [CE]2 | z2 [CE]2 [CE]2 | z2 [CE]2 [CE]2 | z2 [_DE]2 [DE]2 | %115
 z2 [_DE]2 [DE]2 | z2 [_DE]2 [DE]2 | z2 [_DE]2 [DE]2 | z2 [CE]2 [CE]2 | z2 [CE]2 [CE]2 | %120
 z2 [CE]2 [CE]2 | z2 [CE]2 [CE]2 | z2 [F,A,]2 [F,A,]2 | z2 [F,A,]2 [F,A,]2 | z2 [D,A,]2 [D,A,]2 |1 %125
 z2 [G,B,]2 [G,B,]2 :|2 z2 [G,B,]2 [G,B,]2 || [G,=B,F]6 || C,6 | [G,,,G,,]6 | z2 [E,G,]2 [E,G,]2 | %131
 z2 [E,G,]2 [E,G,]2 | z2 [E,G,]2 [E,G,]2 | z2 [E,G,]2 [E,G,]2 | z2 [E,G,]2 [E,G,]2 | %135
 z2 [E,G,]2 [E,G,]2 | z2 [F,A,]2 [F,A,]2 | z2 [G,=B,]2 [G,B,]2 | z2 [A,C]2 [A,C]2 | %139
 z2 [F,A,]2 [F,A,]2 | z2 [F,G,]2 [F,G,]2 | z2 [D,F,]2 [D,F,]2 | z2 [F,G,]2 [F,G,]2 | %143
 z2 [F,G,]2 [F,G,]2 | z2 [E,G,]2 [E,G,]2 | z2 [E,G,]2 [E,G,]2 | z2 [E,G,]2 [E,G,]2 | %147
 z2 [E,G,]2 [E,G,]2 | z2 [A,C]2 [A,C]2 | z2 [A,C]2 [A,C]2 | z2 [F,A,]2 [F,A,]2 | %151
 z2 [F,A,]2 [F,A,]2 | z2 [G,B,]2 [G,B,]2 | [A,C]2 z2 z2 | [G,,G,]2 z2 z2 | [A,,A,]2 z2 z2 | %156
 [G,,G,]2 z2 z2 | [A,,A,]2 z2 z2 | [G,,G,]2 z2 z2 | [A,,A,]2 z2 z2 | [G,,G,]2 z2 z2 | [A,,A,]4 z2 | %162
 [G,,G,]4 z2 | [G,,G,]4 z2 | [C,,C,]2 z2 .[G,,,G,,]2 | .[C,,,C,,]2 z4 |] %166
V:3
 x6 | x6 | x6 | x6 || C,6 | G,,6 | C,6 | G,,6 | C,6 | G,,6 | x6 | x6 | x6 | x6 | D,6 | G,,6 | D,6 | %17
 G,,6 | x6 | x6 | C,6 | G,,6 | F,6 | C,6 | B,,6 | B,,6 | B,,6 | x6 | x6 | x6 | x6 | x6 | x6 | x6 | %34
 x6 | x6 | x6 | x6 || x6 | x6 | x6 | x6 | C,6 | G,,6 | C,6 | G,,6 | C,6 | G,,6 | D,6 | G,,6 | D,6 | %51
 G,,6 | D,6 | G,,6 | D,6 | G,,6 | C,6 | G,,6 | C,6 | G,,6 | F,6 | C,6 | B,,6 | B,,6 | B,,6 | x6 | %66
 x6 | x6 | x6 | x6 | x6 | x6 | x6 | x6 | x6 | x6 || x6 | x6 | E,6 | B,,6 | E,6 | B,,6 | F,6 | %83
 B,,6 | E,6 | B,,6 | C,6 | C,6 | x6 | A,,6 | E,6 | B,,6 | E,6 | B,,6 | E,6 | B,,6 | E,6 | B,,6 | %98
 F,6 | B,,6 | E,6 | B,,6 | E,6 | _D,6 | C,6 | _C,6 | B,,6 | B,,6 | x6 | x6 |: A,6 | E,6 | A,6 | %113
 E,6 | B,6 | E,6 | B,6 | E,6 | A,6 | E,6 | A,6 | E,6 | _D,6 | C,6 | B,,6 |1 E,6 :|2 E,6 || x6 || %128
 x6 | x6 | C,6 | G,,6 | C,6 | G,,6 | C,6 | G,,6 | D,6 | G,,6 | D,6 | G,,6 | D,6 | G,,6 | D,6 | %143
 G,,6 | C,6 | G,,6 | C,6 | G,,6 | F,6 | D,6 | B,,6 | B,,6 | E,6 | x6 | x6 | x6 | x6 | x6 | x6 | %159
 x6 | x6 | x6 | x6 | x6 | x6 | x6 |] %166
V:4
 x6 | x6 | x6 | x6 || x6 | x6 | x6 | x6 | x6 | x6 | z2 [A,C]2 [A,C]2 | z2 [G,=B,]2 [G,B,]2 | %12
 z2 [A,C]2 [A,C]2 | z2 [F,A,]2 [F,A,]2 | x6 | x6 | x6 | z2 =B,2 B,2 | z2 [CE]2 [CE]2 | %19
 z2 [CE]2 [CE]2 | x6 | [EG]6 | F6 | x6 | x6 | x6 | x6 | x6 | x6 | x6 | x6 | x6 | x6 | x6 | x6 | %35
 x6 | x6 | x6 || z2 [EG]2 [EG]2 | z2 [EG]2 [EG]2 | z2 [EG]2 [EG]2 | z2 [EG]2 [EG]2 | x6 | x6 | x6 | %45
 x6 | x6 | x6 | x6 | x6 | x6 | x6 | x6 | x6 | x6 | x6 | x6 | x6 | x6 | [EG]6 | F6 | x6 | x6 | x6 | %64
 x6 | x6 | x6 | x6 | x6 | x6 | x6 | x6 | x6 | x6 | x6 | x6 || x6 | x6 | x6 | x6 | x6 | x6 | x6 | %83
 x6 | x6 | x6 | x6 | x6 | x6 | x6 | x6 | x6 | x6 | x6 | x6 | x6 | x6 | x6 | x6 | x6 | x6 | x6 | %102
 x6 | x6 | x6 | x6 | x6 | x6 | x6 | x6 |: x6 | x6 | x6 | x6 | x6 | x6 | x6 | g4 g2 | x6 | x6 | x6 | %121
 x6 | x6 | x6 | x6 |1 x6 :|2 g6 || x6 || z2 [EG]2 [EG]2 | z2 [G=Bg]4 | x6 | x6 | x6 | x6 | x6 | %135
 x6 | x6 | x6 | x6 | x6 | x6 | x6 | x6 | x6 | x6 | x6 | x6 | z6 | z6 | x6 | x6 | x6 | x6 | x6 | %154
 x6 | x6 | x6 | x6 | x6 | x6 | x6 | x6 | x6 | x6 | x6 | x6 |] %166

